static/assets/img/icons/theme/communication/mail-notification.svg

<svg height="24" viewBox="0 0 24 24" width="24" xmlns="http://www.w3.org/2000/svg"><g fill="none" fill-rule="evenodd"><path d="m0 0h24v24h-24z" opacity="0"/><g fill="#000"><path d="m21 12.0829584c-.3252085-.0545596-.6592878-.0829584-1-.0829584-3.3137085 0-6 2.6862915-6 6 0 .3407122.0283988.6747915.0829584 1h-9.0829584c-1.1045695 0-2-.8954305-2-2v-9c0-1.1045695.8954305-2 2-2h14c1.1045695 0 2 .8954305 2 2zm-2.8555749-4.24331172-6.1444251 3.30853662-6.14442513-3.30853662c-.36470307-.19637858-.81954962-.05992462-1.01592819.30477845-.19637858.36470307-.05992462.81954962.30477845 1.01592819l6.49999997 3.49999998c.2219823.1195289.4891675.1195289.7111498 0l6.5-3.49999998c.364703-.19637857.501157-.65122512.3047784-1.01592819s-.6512251-.50115703-1.0159282-.30477845z"/><circle cx="19.5" cy="17.5" opacity=".3" r="2.5"/></g></g></svg>

<svg width="24px" height="24px" viewBox="0 0 24 24" version="1.1" xmlns="http://www.w3.org/2000/svg" xmlns:xlink="http://www.w3.org/1999/xlink">
    <title>Icon For Mail-notification</title>
    <g stroke="none" stroke-width="1" fill="none" fill-rule="evenodd">
        <rect opacity="0" x="0" y="0" width="24" height="24"></rect>
        <path d="M21,12.0829584 C20.6747915,12.0283988 20.3407122,12 20,12 C16.6862915,12 14,14.6862915 14,18 C14,18.3407122 14.0283988,18.6747915 14.0829584,19 L5,19 C3.8954305,19 3,18.1045695 3,17 L3,8 C3,6.8954305 3.8954305,6 5,6 L19,6 C20.1045695,6 21,6.8954305 21,8 L21,12.0829584 Z M18.1444251,7.83964668 L12,11.1481833 L5.85557487,7.83964668 C5.4908718,7.6432681 5.03602525,7.77972206 4.83964668,8.14442513 C4.6432681,8.5091282 4.77972206,8.96397475 5.14442513,9.16035332 L11.6444251,12.6603533 C11.8664074,12.7798822 12.1335926,12.7798822 12.3555749,12.6603533 L18.8555749,9.16035332 C19.2202779,8.96397475 19.3567319,8.5091282 19.1603533,8.14442513 C18.9639747,7.77972206 18.5091282,7.6432681 18.1444251,7.83964668 Z" fill="#000000"></path>
        <circle fill="#000000" opacity="0.3" cx="19.5" cy="17.5" r="2.5"></circle>
    </g>
</svg>
